X: 5
T: Grace Darling
T: Cader Idris
T: Jenny Jones
C: Daniel Dow (1732-1783)
R: waltz, air
M: 3/4
L: 1/8
N: This is a Welsh air renamed for the Northumbrian heroine. The variation is tasteful but does
N: not  keep  strictly to the tune's harmony in strain 2; Tom Clough later wrote variations for
N: this under its more common name of Jenny Jones.
Z: 2010 John Chambers <jc:trillian.mit.edu>
B: Anonymous manuscript tune book (1800-1840) p.88-89
F: http://www.asaplive.com/archive/browse_by_collection.asp
N: The asaplive.com web site is complex, and links to its files don't usually work.
K: G
d |\
g2 dcBA | (G3ABG) | c2e2(ag) | f3ed2 |\
g2d2B2 | c3de2 | d2g2f2 | g4 :|
|: g2 |\
b2g2b2 | a2f2d2 | g2e2(ag) | f2e2d2 |\
b2g2b2 | a2f2d2 | g2f2e2 | d3.e.f.d |
(g2dc)BA | G2GABG | cBceag | f3ed2 |\
g2d2B2 | c3de2 | d2g2f2 | g4 :|
|:  d2 |\
.g.f.g.d.B.d | GFGBdB | cBceag | fefdef |\
gfgdBG | cBcdec | d^cdefd | g4 :|
|: g2 |\
bagabg | agfgaf | gfefge | fdAdfa |\
bgdgbg | afdfaf | agfe(a^c) | (d3=cBc) |
dBGBdg | ecegec | df.a.f.a.f | g2(bg)(bg) |\
g3dB2 | c3de2 | d2a2f2 | g4 :|


%%sep 5 1 500

